X:3323
T:Kitty Of Colerain. JMT067
O:england
M:6/8
L:1/8
Q:80
S:J.Moore,Tyneside,1841.(47a)
R:Jig
A:Northumbria
K:D
A/G/|FAd dfa|efd ceA|dfa dgb|(b/a/g/f/e/d/) (f/e/d/c/B/A/)|
FAd dfa|efd ceA|dfa dgb|ABcd2:|
|:f/g/|afd ecA|(b/a/g/f/e/d/) (f/e/d/c/B/A/)|afd ecA|Ba^g a2A/G/|
FAd dfa|e(g/f/e/d/) cec|dfa dgb|ABcd2:|]


